X:3
T:La paix, elle aura ton visage
M:C
L:1/8
K:F
C|F3G/F/ E3F/E/|D4 E3C|F3G/F/ E3F/E/|D4 C3C|
F3E/F/ G3F/G/|A3G/A/ B2c/B/|A3G/F/ G3F/E/|F6 z2||
F8|G4 A4|B3A G3F/E/|F6 z2||
